X:1
T:Title
%%score { ( 1 4 ) | ( 2 3 ) }
L:1/8
M:4/4
K:Ab
V:1 treble nm="Grand Piano"
V:4 treble 
V:2 bass 
V:3 bass 
V:1
 z4 z2[Q:1/4=108] [A,CE]2 | [CEA]2 [CEA]2 [A,FA]2 [A,EA]2 | [DFB]2 [B,EG]2 [CEA]2 [A,EG]2 | %3
 [A,DF]2 [B,EG]2 [A,EA]2 [=DB]2 |[M:3/4] B6 |[M:1/4] B2 |[M:4/4] d2 c2 B2 A2 | %7
 [DFB]2 [B,EG]2 [CEA]2 [B,=EG]2 | [A,F]2 [A,EA]2 [B,EG]2 [A,=DF]2 |[M:3/4] [G,E]6 |[M:1/4] z2 | %11
[M:4/4] z2 A,2 A2 [EG]2 | F2 F2 z2 F2 | z2 B,2 B2 [FA]2 | G2 G2 z2 E2 | [=Ec]2 [GB]2 [FA]2 [F=A]2 | %16
[M:9/8] [FB]2 [Fc]- [Fc] [Fd]2- [Fd][Ec]B |[M:4/4] A2 A2 A2 G2 |[M:3/4] [CA]6 |] %19
V:2
 z4 z2 A,,2 | A,,2 A,,2 D,2 C,2 | B,,2 E,2 A,,2 C,2 | D,2 D,2 C,2 [B,,A,]2 |[M:3/4] [E,G,E]6 | %5
[M:1/4] [E,G,E]2 |[M:4/4] [E,B,E]2 [E,A,E]2 [E,G,D]2 [F,A,C]2 | D,2 E,2 A,,2 C,2 | %8
 D,2 C,2 B,,2 B,,2 |[M:3/4] E,6 |[M:1/4] E2 |[M:4/4] C6 z2 | [D,A,D]2 [D,A,D]2 z2 D2 | =D6 z2 | %14
 [E,B,E]2 [E,B,E]2 z2 [E,G,]2 | [C,G,]2 [=E,C]2 [F,C]2 [_E,C]2 | %16
[M:9/8] [D,B,]2 [C,=A,]- [C,A,] [B,,B,]2- [B,,B,]C,[D,D] | %17
[M:4/4] [E,CE]2 [E,_CE]2 [E,B,D]2 [E,B,D]2 |[M:3/4] [A,,A,]6 |] %19
V:3
 x8 | x8 | x8 | x8 |[M:3/4] x6 |[M:1/4] x2 |[M:4/4] x8 | x8 | x8 |[M:3/4] x6 |[M:1/4] z D | %11
[M:4/4] z2 A,,2 [A,,A,]2 [C,A,]2 | x8 | z2 B,,2 [B,,B,]2 [=D,B,]2 | x8 | x8 |[M:9/8] x9 | %17
[M:4/4] x8 |[M:3/4] x6 |] %19
V:4
 x8 | x8 | x8 | x8 |[M:3/4] x6 |[M:1/4] x2 |[M:4/4] x8 | x8 | x8 |[M:3/4] x6 |[M:1/4] x2 | %11
[M:4/4] E4 z4 | x8 | F4 z4 | x8 | x8 |[M:9/8] z3 z3 z F2 |[M:4/4] x8 |[M:3/4] x6 |] %19

